X: 061814
T: Frazer's
T: R\'il U\'i Fhriseal
S: B.Breathnach:"Ceol Rince na hEireann" IV/203 
Z: B.Black
L: 1/8
M: 4/4
R: reel
K: G
d2 BG dGBe|d2 BG ceeg|d2 BG dGBG|cABG E2 ge|
d2 BG dGBe|d2 BG ceeg|d2 BG dGBG|cABG EF G2 ||
efge dB B2|efge fgag|efge dB B2|cABG EF G2|
efge dB B2|efge fgag|bg (3ggg gedB|cABG EF G2 ||
